X: 122
T:Sligo Creek
R:reel
C:Danny Noveck c1988
M:C|
L:1/8
K:Bm
de| f2ef dB~B2| f2 ef def^g| a2ed cAAF| EFAB c3e|
f2ef dB~B2| f2ef def^g | a2ed cAec| ABcA B2 :|
|: BA| GB~B2 Bcde| f2ec defd| eA A/A/A cAFA| EFAB c2BA|
GB~B2 Bcde| f2ec defd| ea a/a/a faec| ABcA B2 :|
